svgs/regular/camera-retro.svg

<svg xmlns="http://www.w3.org/2000/svg" viewBox="0 0 512 512"><!--! Font Awesome Pro 6.3.0 by @fontawesome - https://fontawesome.com License - https://fontawesome.com/license (Commercial License) Copyright 2023 Fonticons, Inc. --><path d="M192 112H64c-8.8 0-16 7.2-16 16v64H156.1c23.5-29.3 59.5-48 99.9-48s76.5 18.7 99.9 48H464V96c0-8.8-7.2-16-16-16H271.1c-2.5 0-4.9 .6-7.2 1.7l-50.5 25.2c-6.7 3.3-14 5.1-21.5 5.1zM48 240V416c0 8.8 7.2 16 16 16H448c8.8 0 16-7.2 16-16V240H380c2.6 10.2 4 21 4 32c0 70.7-57.3 128-128 128s-128-57.3-128-128c0-11 1.4-21.8 4-32H48zM0 416V128C0 92.7 28.7 64 64 64l0-16c0-8.8 7.2-16 16-16h64c8.8 0 16 7.2 16 16V64h32l50.5-25.2c8.9-4.4 18.7-6.8 28.6-6.8H448c35.3 0 64 28.7 64 64V416c0 35.3-28.7 64-64 64H64c-35.3 0-64-28.7-64-64zM336 272a80 80 0 1 0 -160 0 80 80 0 1 0 160 0z"/></svg>

<svg xmlns="http://www.w3.org/2000/svg" viewBox="0 0 512 512"><!--! Font Awesome Pro 6.2.0 by @fontawesome - https://fontawesome.com License - https://fontawesome.com/license (Commercial License) Copyright 2022 Fonticons, Inc. --><path d="M0 416V128C0 92.65 28.65 64 64 64V48C64 39.16 71.16 32 80 32H144C152.8 32 160 39.16 160 48V64H192L242.5 38.76C251.4 34.31 261.2 32 271.1 32H448C483.3 32 512 60.65 512 96V416C512 451.3 483.3 480 448 480H64C28.65 480 0 451.3 0 416zM64 112C55.16 112 48 119.2 48 128V192H156.1C179.5 162.7 215.6 144 256 144C296.4 144 332.5 162.7 355.9 192H464V96C464 87.16 456.8 80 448 80H271.1C268.6 80 266.2 80.58 263.1 81.69L213.5 106.9C206.8 110.3 199.5 112 192 112H64zM48 240V416C48 424.8 55.16 432 64 432H448C456.8 432 464 424.8 464 416V240H379.1C382.6 250.2 384 260.1 384 272C384 342.7 326.7 400 256 400C185.3 400 128 342.7 128 272C128 260.1 129.4 250.2 132 240H48zM256 192C211.8 192 176 227.8 176 272C176 316.2 211.8 352 256 352C300.2 352 336 316.2 336 272C336 227.8 300.2 192 256 192z"/></svg>
